src/assets/IconThinkingActive.svg

<svg width="557" height="557" fill="none" xmlns="http://www.w3.org/2000/svg"><path fill-rule="evenodd" clip-rule="evenodd" d="M278.5 557C432.311 557 557 432.311 557 278.5S432.311 0 278.5 0 0 124.689 0 278.5 124.689 557 278.5 557z" fill="url(#paint0_linear)"/><path opacity=".691" d="M203.729 242.282A38.373 38.373 0 0 0 176.511 231c-21.264-.006-38.505 17.226-38.511 38.49-.006 21.263 17.226 38.504 38.489 38.51 21.264.006 38.505-17.226 38.511-38.489a38.505 38.505 0 0 0-11.271-27.229z" fill="#fff"/><path opacity=".668" fill-rule="evenodd" clip-rule="evenodd" d="M178.061 320h-4.09c-43.019.108-77.865 35.365-77.971 78.888v5.573c0 3.059 2.45 5.539 5.475 5.539h149.05c3.024 0 5.475-2.48 5.475-5.539v-5.573c-.124-43.504-34.94-78.745-77.939-78.888z" fill="url(#paint1_linear)"/><path d="M441.003 130.19a149.966 149.966 0 0 0-88.503-27.171 149.966 149.966 0 0 0-88.503 27.171C240.484 147.518 226 171.628 226 198.469a75.423 75.423 0 0 0 8.653 34.846 93.483 93.483 0 0 0 19.704 25.475l-20.08 41.768c-1.923 3.952-.281 8.715 3.665 10.638a7.936 7.936 0 0 0 7.715-.42l46.179-28.536a151.769 151.769 0 0 0 27.181 8.241 166.35 166.35 0 0 0 33.483 3.39 149.965 149.965 0 0 0 88.503-27.17C464.516 249.372 479 225.262 479 198.422c0-26.841-14.531-50.904-37.997-68.232z" fill="#fff"/><defs><linearGradient id="paint0_linear" x1="172.727" y1="782.523" x2="719.023" y2="350.945" gradientUnits="userSpaceOnUse"><stop stop-color="#FFB36D"/><stop offset="1" stop-color="#F88"/></linearGradient><linearGradient id="paint1_linear" x1="386.436" y1="416.448" x2="336.089" y2="289.348" gradientUnits="userSpaceOnUse"><stop stop-color="#fff" stop-opacity=".01"/><stop offset="1" stop-color="#fff"/></linearGradient></defs></svg>

<svg width="557" height="557" viewBox="0 0 557 557" fill="none" xmlns="http://www.w3.org/2000/svg">
<g id="Group 73">
<g id="Group 64">
<path id="Oval Copy 9" fill-rule="evenodd" clip-rule="evenodd" d="M278.5 557C432.311 557 557 432.311 557 278.5C557 124.689 432.311 0 278.5 0C124.689 0 0 124.689 0 278.5C0 432.311 124.689 557 278.5 557Z" fill="url(#paint0_linear)"/>
<path id="Path" opacity="0.690523" d="M203.729 242.282C196.519 235.049 186.723 230.989 176.511 231C155.247 230.994 138.006 248.226 138 269.49C137.994 290.753 155.226 307.994 176.489 308C197.753 308.006 214.994 290.774 215 269.511C215.002 259.299 210.948 249.504 203.729 242.282Z" fill="white"/>
<path id="Path_2" opacity="0.668271" fill-rule="evenodd" clip-rule="evenodd" d="M178.061 320H173.971C130.952 320.108 96.1063 355.365 96 398.888V404.461C96 407.52 98.4509 410 101.475 410H250.525C253.549 410 256 407.52 256 404.461V398.888C255.876 355.384 221.06 320.143 178.061 320Z" fill="url(#paint1_linear)"/>
<path id="Combined Shape" d="M441.003 130.19C415.098 112.023 384.123 102.514 352.5 103.019C320.877 102.514 289.902 112.023 263.997 130.19C240.484 147.518 226 171.628 226 198.469C226.038 210.613 229.006 222.568 234.653 233.315C239.699 242.884 246.366 251.504 254.357 258.79L234.277 300.558C232.354 304.51 233.996 309.273 237.942 311.196C240.413 312.402 243.331 312.243 245.657 310.776L291.836 282.24C300.62 285.831 309.72 288.59 319.017 290.481C330.036 292.74 341.254 293.876 352.5 293.871C384.123 294.376 415.098 284.868 441.003 266.701C464.516 249.372 479 225.262 479 198.422C479 171.581 464.469 147.518 441.003 130.19Z" fill="white"/>
</g>
</g>
<defs>
<linearGradient id="paint0_linear" x1="172.727" y1="782.523" x2="719.023" y2="350.945" gradientUnits="userSpaceOnUse">
<stop stop-color="#FFB36D"/>
<stop offset="1" stop-color="#FF8888"/>
</linearGradient>
<linearGradient id="paint1_linear" x1="386.436" y1="416.448" x2="336.089" y2="289.348" gradientUnits="userSpaceOnUse">
<stop stop-color="white" stop-opacity="0.01"/>
<stop offset="1" stop-color="white"/>
</linearGradient>
</defs>
</svg>
